X: 28500
T: Munster Bank, The
R: polka
M: 2/4
K: Gmajor
GA/G/ DE|GA Bd|ed Bd/B/|AG EF|
GA/G/ DE|GA Bd|ed Bd/B/|1 AG GF:|2 AG GA||
ed Bd|ed Bd|ed Bd/B/|AG E2|
ed Bd|ed Bd|ed Bd/B/|AG Ge|
ed Bd|ed Bd|gg/e/ dB|AG EF|
G>E DE|GA Bd|ed Bd/B/|AG G2||

